X: 11
T:Alexander's Hornpipe
T:Sandlark Hornpipe, The
M:4/4
L:1/8
R:Hornpipe
K:D
(3ABc[|:dAFA DFAd|fdcd Adef|gfge fefd|(3efe (3dcB A2 (3ABc|!
dAFA DFAd|fdcd Adef|gfge fdcd|1(3efe dc d2 (3ABc:|2(3efe dc d2
AG|!
|:FAdA FAdA|GBdB GBdB|Acec Acec|dfaf (3gfe (3cBA|!
FAdA FAdA|GBdB GBdB|Acef gecd|1(3efe dc d2AG:|2(3efe dc d2 (3A
B
c|]!
